assets/icons/premierepro-icon.svg

<svg xmlns="http://www.w3.org/2000/svg" viewBox="0 0 76 76" fill="currentColor">
  <path d="M21.8543 22.9925c1.9647-.3578 4.6883-.6249 8.3937-.6249 4.0171 0 6.9639.8485 8.8831 2.4555 1.7856 1.473 2.9468 3.8394 2.9468 6.6517 0 2.8568-.893 5.2233-2.5896 6.8307-2.1869 2.1879-5.6245 3.2141-9.508 3.2141-.0272 0-.0545 0-.0817 0-.9276 0-1.8651-.0441-2.5796-.1786v11.3391h-5.4464V22.9925zm5.4464 14.0178c.6704.1791 1.5629.2232 2.6796.2232 4.1071 0 6.6066-2.0088 6.6066-5.5356 0-3.348-2.3218-5.1337-6.1158-5.1337-1.5184 0-2.5896.1336-3.1704.2677v10.1784zm23.7067-1.9193c1.0716-3.0804 3.6162-4.6433 5.9372-4.6433l1.2953.1341v5.1791c-.4468-.0899-.9381-.1785-1.6079-.1785-2.6337 0-4.4189 1.6956-4.9102 4.1516l-.1786 1.697v11.2491h-5.4914V37.9479c0-2.9464-.0445-5.0442-.1781-7.0084h4.7765l.1777 4.1515h.1796z"/>
</svg>

<?xml version="1.0" encoding="utf-8"?>
<!DOCTYPE svg PUBLIC "-//W3C//DTD SVG 1.1//EN" "http://www.w3.org/Graphics/SVG/1.1/DTD/svg11.dtd">
<!-- Uploaded to: SVG Repo, www.svgrepo.com, Generator: SVG Repo Mixer Tools -->
<svg width="800px" height="800px" viewBox="0 0 76 76" xmlns="http://www.w3.org/2000/svg" xmlns:xlink="http://www.w3.org/1999/xlink" version="1.1" baseProfile="full" enable-background="new 0 0 76.00 76.00" xml:space="preserve">
	<path fill="#000000" fill-opacity="1" stroke-width="0.2" stroke-linejoin="round" d="M 21.8543,22.9925C 23.819,22.6347 26.5426,22.3676 30.248,22.3676C 34.2651,22.3676 37.2119,23.2161 39.1311,24.8231C 40.9167,26.2961 42.0779,28.6625 42.0779,31.4748C 42.0779,34.3316 41.1849,36.6981 39.4883,38.3055C 37.3014,40.4934 33.8638,41.5196 29.9803,41.5196C 28.9527,41.5196 28.0152,41.4755 27.3007,41.341L 27.3007,52.6801L 21.8543,52.6801L 21.8543,22.9925 Z M 27.3007,37.0103C 27.9711,37.1894 28.8636,37.2335 29.9803,37.2335C 34.0874,37.2335 36.5869,35.2247 36.5869,31.6979C 36.5869,28.3499 34.2651,26.5642 30.4711,26.5642C 28.9527,26.5642 27.8815,26.6978 27.3007,26.8319L 27.3007,37.0103 Z M 51.0074,35.091C 52.079,32.0106 54.6236,30.4477 56.9446,30.4477L 58.2399,30.5818L 58.2399,35.7609C 57.7931,35.671 57.3018,35.5824 56.632,35.5824C 53.9983,35.5824 52.2131,37.278 51.7218,39.734L 51.5432,41.431L 51.5432,52.6801L 46.0518,52.6801L 46.0518,37.9479C 46.0518,35.0015 46.0073,32.9037 45.8737,30.9395L 50.6502,30.9395L 50.8279,35.091L 51.0074,35.091 Z "/>
</svg>
